packages/orbit-components/src/icons/svg/calendar-trip-length.svg

<!--character:215:550:2273-->
  <svg width="24" height="24" viewBox="0 0 24 24" >
<path   d="M19.9167 4.5H17.5834C17.5001 4.5 17.4167 4.41667 17.4167 4.33333V2.83333C17.4167 2.33333 17.0834 2 16.5834 2C16.0834 2 15.7501 2.33333 15.7501 2.83333V6.83333C15.7501 7.16667 15.5001 7.5 15.0834 7.5C14.7501 7.5 14.4167 7.25 14.4167 6.83333V4.91667C14.5001 4.66667 14.3334 4.5 14.0834 4.5H8.83341C8.75008 4.5 8.66675 4.41667 8.66675 4.33333V2.83333C8.66675 2.33333 8.33341 2 7.83341 2C7.33341 2 7.00008 2.33333 7.00008 2.83333V6.83333C7.00008 7.16667 6.75008 7.5 6.33341 7.5C6.00008 7.5 5.66675 7.25 5.66675 6.83333V4.91667C5.75008 4.66667 5.58341 4.5 5.33341 4.5H4.08341C3.16675 4.5 2.41675 5.25 2.41675 6.16667V20.3333C2.41675 21.25 3.16675 22 4.08341 22H19.9167C20.8334 22 21.5834 21.25 21.5834 20.3333V6.16667C21.5834 5.25 20.8334 4.5 19.9167 4.5ZM13.7506 14.0002V12.4168C13.7506 11.6668 14.6672 11.3326 15.1664 11.8334L17.7507 14.4168C18.0832 14.7502 18.0832 15.2502 17.7507 15.5835L15.1664 18.167C14.6672 18.667 13.7506 18.3336 13.7506 17.5836V16.0002C13.7506 15.9169 13.6672 15.8336 13.5839 15.8336H10.4162C10.3329 15.8336 10.2496 15.9169 10.2496 16.0002V17.5836C10.2496 18.3336 9.33287 18.667 8.83369 18.167L6.24944 15.5835C5.91693 15.2502 5.91693 14.7502 6.24944 14.4168L8.83369 11.8334C9.33287 11.3326 10.2496 11.6668 10.2496 12.4168V14.0002C10.2496 14.0835 10.3329 14.1668 10.4162 14.1668H13.5839C13.6672 14.1668 13.7506 14.0835 13.7506 14.0002ZM4.5001 20.3333H19.5001C19.7501 20.3333 19.9168 20.1667 19.9168 19.9167V9.91667C19.9168 9.66667 19.7501 9.5 19.5001 9.5H4.5001C4.2501 9.5 4.08344 9.66667 4.08344 9.91667V19.9167C4.08344 20.1667 4.2501 20.3333 4.5001 20.3333Z" />
</svg>

<!--character:215:550:2273-->
<svg width="24" height="24" viewBox="0 0 24 24" xmlns="http://www.w3.org/2000/svg"><path d="M19.9167 4.5h-2.3334c-.0833 0-.1666-.0833-.1666-.1667v-1.5c0-.5-.3334-.8333-.8334-.8333s-.8333.3333-.8333.8333v4c0 .3334-.25.6667-.6667.6667-.3333 0-.6666-.25-.6666-.6667V4.9167c.0833-.25-.0834-.4167-.3334-.4167h-5.25c-.0833 0-.1666-.0833-.1666-.1667v-1.5c0-.5-.3334-.8333-.8334-.8333S7 2.3333 7 2.8333v4c0 .3334-.25.6667-.6667.6667-.3333 0-.6666-.25-.6666-.6667V4.9167c.0833-.25-.0834-.4167-.3334-.4167h-1.25c-.9166 0-1.6666.75-1.6666 1.6667v14.1666c0 .9167.75 1.6667 1.6666 1.6667h15.8334c.9166 0 1.6666-.75 1.6666-1.6667V6.1667c0-.9167-.75-1.6667-1.6666-1.6667zM19.5 20.3333h-15c-.25 0-.4167-.1666-.4167-.4166v-10c0-.25.1667-.4167.4167-.4167h15c.25 0 .4167.1667.4167.4167v10c0 .25-.1667.4166-.4167.4166zm-5.7495-6.3331v-1.5834c0-.75.9167-1.0842 1.4159-.5834l2.5842 2.5834c.3325.3334.3325.8334 0 1.1667l-2.5842 2.5835c-.4992.5-1.416.1666-1.416-.5834v-1.5834c0-.0833-.0832-.1667-.1666-.1667h-3.1676c-.0834 0-.1667.0834-.1667.1667v1.5834c0 .75-.9167 1.0834-1.4159.5834l-2.5842-2.5835c-.3325-.3333-.3325-.8333 0-1.1667l2.5842-2.5834c.4992-.5008 1.416-.1667 1.416.5834v1.5834c0 .0833.0832.1666.1666.1666h3.1676c.0834 0 .1667-.0833.1667-.1666z"/></svg>
